X:12
T:Superlative Thirds
C:Colin Grant
Z:robin.beech@mcgill.ca
R:slide
M:12/8
L:1/8
K:D
fBBA Bcdc- cAce | fBBA Bcde- eAce | fBBA Bcdc- cAGF | GAB ABc Bcd cde :|
affe fgab-  bABd | cFFE FEDB,- B,ABd | gBBA Bcde-  eAcA | BGB cAc dAd efg |
affe fgab-  bABd | cFFE FEDB,- B,ABd | gBBA Bcde-  eAcA | BGB AFD FEE DED |:
B,FBc d2A,E Ac2B/A/ | BFBc dBde cdgf | B,FBc d2A,E Ac2B/A/ | BDF GFD E2FD2C :|
